!!!!SEGMENT: pl-wtm--670-sp-3678--001-004_reinecke-carl--piosenki-dla-mlodocianego-wieku-piotr-maszynski-4-gwiazdzista-noc.krn
!!!cenid: 18xx:4756
!!!COM: Reinecke, Carl
!!!COM-rismID: pe42007
!!!CDT: 1824/06/23-1910/03/10
!!!CNT: German
!!!GTL: Piosenki dla młodocianego wieku (Piotr Maszyński)
!!!OTL: 4. Gwiaździsta noc
!!!OMV: 004
!!!PDT: 1871
!!!AGN: Secular; Song; Children
!!!YEC: Copyright 2022 Narodowy Instytut Fryderyka Chopina (https://polishscores.org)
!!!YEM: License CC-BY-4.0 (https://creativecommons.org/licenses/by/4.0)
!!!SMS-siglum: PL-Wtm
!!!SMS-shelfmark: 670 śp 3678
!!!SMS-variant:
!!!SMS-altvar:
!!!SMS-shelfwork: 001-004 G
!!!NIFC-rismSourceID: 1001185478
!!!NIFC-rismChildID: 1001185478
!!!NIFC-islandoraID: pl-wtm:57754
!!!URL-pdf-islandora: https://repozytorium.nifc.pl/islandora/object/pl-wtm%3A57754/datastream/PDF/view
!!!URL-scan: https://polish.musicsources.pl/pl/lokalizacje/galeria/druki-muzyczne/19483/4 @EN{Scan on Polish Music Sources Website} @PL{Skany w portalu Dziedzictwo Muzyki Polskiej w otwartym dostępie}
!!!IIIF:
!!!ONB-nifc:
!!!AIN: 1 canto 1 piano
!!!key: G
**kern	**kern	**dynam	**kern	**text	**dynam
*part2	*part2	*part2	*part1	*part1	*part1
*staff3	*staff2	*staff2/3	*staff1	*staff1	*
*IGacmp	*IGacmp	*	*	*	*
*ICklav	*ICklav	*	*ICvox	*	*
*Ipiano	*Ipiano	*	*Icanto	*	*
*I"Fortepian.	*I"Fortepian.	*	*I"Śpiew.	*	*
*I'	*I'	*	*I'	*	*
*clefF4	*clefG2	*	*clefG2	*	*
*k[f#]	*k[f#]	*	*k[f#]	*	*
*G:	*G:	*	*G:	*	*
*M3/8	*M3/8	*	*M3/8	*	*
=1	=1	=1	=1	=1	=1
*^	*^	*	*	*	*
!!LO:TX:a:B:t=Andantino.
!	!	!LO:N:vis=8	!	!LO:DY:rj	!	!	!
[4.D/	4GG\	16d/LL	4B\	f	16d/	Mru-	.
!	!	!LO:N:vis=8	!	!	!	!	!
.	.	16d/J	.	.	16d/	-ga	.
.	.	8.g/	.	.	8.g/	gwiazd-	.
.	8BB\	.	8d\	.	.	.	.
.	.	16a/Jk	.	.	16a/	-ka,	.
=2	=2	=2	=2	=2	=2	=2	=2
8D/]	4.AA\	(4g/	4.d 4.c\	.	4g/	mru-	.
4D/	.	.	.	.	.	.	.
.	.	8f#/)	.	.	8f#/	-ga	.
*v	*v	*	*	*	*	*	*
*	*v	*v	*	*	*	*
=3	=3	=3	=3	=3	=3
4DD/	8ccL 8f# 8e/	>	16cc\	na	.
.	.	.	16cc\	nie-	.
.	8.b 8.d/	.	8.b\	-bio-	.
8D\	.	.	.	.	.
.	16aJk 16c/	]]	16a/	-sów	.
=4	=4	=4	=4	=4	=4
8D 8GG/	16gLL 16B/	.	4g/	tle,	.
!	!	!LO:DY:rj	!	!	!
.	16B/J	p	.	.	.
4D\	(8d 8B/	.	.	.	.
.	8cJ 8A/)	.	8r	.	.
!!LO:LB:g=original
=5	=5	=5	=5	=5	=5
*^	*^	*	*	*	*
!	!	!LO:N:vis=8	!	!	!	!	!
[4.D/	4GG\	16d/LL	4B\	mf	16d/	za	.
!	!	!LO:N:vis=8	!	!	!	!	!
.	.	16d/J	.	.	16d/	nią	.
.	.	8.g/	.	.	8.g/	je-	.
.	8BB\	.	8d\	.	.	.	.
.	.	16a/Jk	.	.	16a/	-dna,	.
=6	=6	=6	=6	=6	=6	=6	=6
8D/]	4.AA\	(4g/	4.d 4.c\	.	4g/	dru-	.
4D/	.	.	.	.	.	.	.
.	.	8f#/)	.	.	8f#/	-ga	.
*v	*v	*	*	*	*	*	*
*	*v	*v	*	*	*	*
=7	=7	=7	=7	=7	=7
4DD/	8ccL 8f# 8e/	>	16cc\	u-	.
.	.	.	16cc\	-ka-	.
.	8.b 8.d/	.	8.b\	-zu-	.
8D\	.	.	.	.	.
.	16aJk 16c/	]]	16a/	-je	.
=8	=8	=8	=8	=8	=8
*^	*^	*	*	*	*
!	!	!	!	!LO:DY:rj	!	!	!
16D/LL	4.GG\	4.g/	16B\LL	p	4g/	się.	.
(<16D/J	.	.	(<16B\J	.	.	.	.
.	.	.	8qd/	.	.	.	.
8E/	.	.	8c\	.	.	.	.
8D/J)	.	.	8B\J)	.	8r	.	.
*	*	*v	*v	*	*	*	*
=9	=9	=9	=9	=9	=9	=9
!	!	!	!	!	!	!LO:DY:a:rj
4.A/	(4D\	16f#LL 16d/	mf	16f#/	Peł-	mf
.	.	16gJJ 16e/	.	16g/	-no	.
.	.	4a 4f#/	.	4a/	tu,	.
.	8AA\)	.	.	.	.	.
!!LO:LB:g=original
=10	=10	=10	=10	=10	=10	=10
*	*	*^	*	*	*	*
4.A/	(8D#X\	(16a/LL	8cn\	.	16a/	peł-	.
.	.	16f#/J	.	.	16f#/	-no	.
.	4E\)	8g/)	4c#X\	.	8g/	wszę-	.
.	.	8g/J	.	.	8g/	-dy	.
=11	=11	=11	=11	=11	=11	=11	=11
4A/	(16G\LL	(16e/LL	4c#X\	.	16e/	jak-	.
.	16F#\J	16f#/J	.	.	16f#/	-by	.
.	8E\)	8g/)	.	.	8g/	je	.
8G#X/	8E#X\J	8b/J	8d\	.	8b\	kto	.
=12	=12	=12	=12	=12	=12	=12	=12
(8A/L	8F#\	4.a/	16d\LL	.	4a/	siał,	.
.	.	.	16d\J	.	.	.	.
8A^</	4AA\	.	(>8f#^>\	.	.	.	.
8Gn/J)	.	.	8e\J)	.	8r	.	.
*v	*v	*	*	*	*	*	*
*	*v	*v	*	*	*	*
=13	=13	=13	=13	=13	=13
8F#L 8BB\	8ddL 8d/	.	16dd\	la-	.
.	.	.	16dd\	-zu-	.
8A 8F#\	8cc#X 8f#/	.	8cc#X\	-ro-	.
8BJ 8G\	8bJ 8d/	.	8b\	-we	.
=14	=14	=14	=14	=14	=14
*^	*^	*	*	*	*
(8d/L	4A\	(8.a/L	4e\	.	(8.a/L	grzę-	.
8c#X/)	.	.	.	.	.	.	.
.	.	16g/K)	.	.	16g/Jk)	.	.
8B/J	8B\	8f#/J	8d\	.	8f#/	-dy,	.
!!LO:LB:g=original
=15	=15	=15	=15	=15	=15	=15	=15
8B 8G\	8ryy	(16e/LL	8d\	.	16e/	bry-	.
.	.	16g/JJ)	.	.	16g/	-lan-	.
(<8A/L	8A\L	(8.f#/L	(>8d\L	.	8.f#/	-to-	.
8G/J)	8AA\J	.	8c#X\J)	.	.	.	.
.	.	16e/Jk)	.	.	16e/	-wy	.
=16	=16	=16	=16	=16	=16	=16	=16
!	!	!	!	!LO:HP:a	!	!	!
(<8F#/L	4.D\	4.d/	(>8A\L	>	4d/	miał!	.
8G/	.	.	8B\	.	.	.	.
8A/J)	.	.	8cn\J)	]	8r	.	.
=17	=17	=17	=17	=17	=17	=17	=17
!	!	!	!	!LO:DY:rj	!	!	!LO:DY:a:rj
[4.D/	4GG\	16d/LL	4B\	f	16d/	Świe-	f
.	.	16d/J	.	.	16d/	-cą	.
.	.	8.g/	.	.	8.g/	gwia-	.
.	8BB\	.	8d\	.	.	.	.
.	.	16a/Jk	.	.	16a/	-zdy	.
=18	=18	=18	=18	=18	=18	=18	=18
8D/]	4.AA\	(4g/	4.d 4.c\	.	4g/	ja-	.
4D/	.	.	.	.	.	.	.
.	.	8f#/)	.	.	8f#/	-sno,	.
*v	*v	*	*	*	*	*	*
*	*v	*v	*	*	*	*
=19	=19	=19	=19	=19	=19
4DD/	8ccL 8f# 8e/	.	16cc\	za	.
.	.	.	16cc\	cu-	.
.	8.b 8.f# 8.d/	.	8.b\	-da-	.
8D\	.	.	.	.	.
.	16aJk 16c/	.	16a/	-mi	.
!!LO:LB:g=original
=20	=20	=20	=20	=20	=20
*^	*^	*	*	*	*
!	!	!	!	!LO:DY:rj	!	!	!
8D/L	8GG\	4.g/	16B\LL	p	4g/	cud!	.
.	.	.	(>16B\J	.	.	.	.
(<8B/	4D\	.	8d\	.	.	.	.
8A/J)	.	.	8c\J)	.	8r	.	.
=21	=21	=21	=21	=21	=21	=21	=21
!	!	!	!	!LO:DY:rj	!	!	!
(16B/LL	4G\	(16g/LL	4fn\	mf	16g/	jesz-	.
!	!	!	!	!	!	!	!LO:HP:a
16c/J	.	16a/J	.	.	16a/	-cze	<
8d/J)	.	8b/)	.	.	8b\	nim	.
8ryy	8G\	8dd/J	8b 8g 8f\	.	8dd\	po-	[
*	*	*v	*v	*	*	*	*
=22	=22	=22	=22	=22	=22	=22
!	!	!	!	!	!	!LO:HP:a
8r	4.C\	4dd 4b 4g#X 4fn/	.	4dd\	-ga-	>
4c/	.	.	.	.	.	.
.	.	8cc 8a 8e/	.	8cc\	-sną	]
*v	*v	*	*	*	*	*
=23	=23	=23	=23	=23	=23
*	*^	*	*	*	*
8r	(8e/L	8r	.	16e/	przyj-	.
.	.	.	.	16e/	-dzie	.
8r	8.a/	8rA	.	8.a/	słoń-	.
8D\	.	8f# 8c\	.	.	.	.
.	16b/Jk)	.	.	16b\	-ca	.
*	*v	*v	*	*	*	*
=24	=24	=24	=24	=24	=24
4.D 4.GG;</	4.g 4.B;/	.	4.g;/	wschód!	.
==	==	==	==	==	==
*-	*-	*-	*-	*-	*-
!!!system-decoration: s1{(s2,s3)}
!!!RDF**kern: > = above
!!!RDF**kern: < = below
!!!RDF**kern: N = linked
!!!ENC: Andrzej Gręziak
!!!EED: Katarzyna Serwa
!!!END: 2025-03-25
!!!EEV: 2025-03-27
